img/svg/burger.svg

<svg class="sc-aXZVg ktFCMi mx-icon header_mobileMenuToggle__gRSy_ header_navItem__dEqAQ" width="1em" height="1em" fill="currentColor" aria-hidden="true" viewBox="0 0 20 20" data-icon="MenuOutlined" font-size="22"><path fill-rule="evenodd" clip-rule="evenodd" d="M0 2h20v2H0V2zm0 7h20v2H0V9zm20 7H0v2h20v-2z"/></svg>

<svg class="sc-aXZVg ktFCMi mx-icon header_mobileMenuToggle__gRSy_ header_navItem__dEqAQ" focusable="false" width="1em" height="1em" fill="currentColor" aria-hidden="true" style="font-size:22px" viewBox="0 0 20 20" data-icon="MenuOutlined"><path fill-rule="evenodd" clip-rule="evenodd" d="M0 2H20V4H0V2ZM0 9H20V11H0V9ZM20 16H0V18H20V16Z"></path></svg>
